src/icons/junk-email.svg

<?xml version="1.0" encoding="UTF-8"?>
<svg width="512px" height="512px" viewBox="0 0 512 512" version="1.1" xmlns="http://www.w3.org/2000/svg" xmlns:xlink="http://www.w3.org/1999/xlink">
    <!-- Generator: Sketch 62 (91390) - https://sketch.com -->
    <title>junk-email</title>
    <desc>Created with Sketch.</desc>
    <g id="junk-email" stroke="none" stroke-width="1" fill="none" fill-rule="evenodd">
        <path d="M110.4,152.9 C118.9,157.4 236.4,221.4 240.8,223.7 C245.2,226 249.6,227.1 256.6,227.1 C263.7,227.1 268,226 272.4,223.7 C276.8,221.4 394.3,157.3 402.8,152.9 C406,151.3 411.3,148.4 412.4,145.1 C414.4,139.3 412.2,137 403.7,137 L109.5,137 C101,137 98.8,139.3 100.8,145.1 C102,148.6 107.3,151.3 110.4,152.9 Z" id="Path" fill="#000000" fill-rule="nonzero"></path>
        <path d="M410.2,161.399922 C403.9,164.599922 347.3,204.899922 309.8,229.199922 L373,300.399922 C374.5,301.899922 375.2,303.799922 374.4,304.699922 C373.5,305.499922 371.5,305.099922 369.9,303.599922 L294.1,239.599922 C282.6,246.999922 274.6,252.099922 273.2,252.799922 C267.3,255.799922 263.1,256.199922 257.4,256.199922 C251.7,256.199922 247.6,255.799922 241.6,252.799922 C240.1,251.999922 232.1,246.999922 220.7,239.599922 L144.9,303.599922 C143.4,305.099922 141.3,305.599922 140.4,304.699922 C139.5,303.899922 140.2,301.899922 141.7,300.399922 L204.9,229.199922 C167.4,204.999922 110.2,164.699922 103.9,161.399922 C97,157.899922 96.6,161.999922 96.6,165.199922 L96.6,322.899922 C96.6,330.099922 107.1,338.999922 114.7,338.999922 L400.1,338.999922 C407.6,338.999922 416.6,329.999922 416.6,322.899922 L416.6,165.199922 C416.6,161.899922 417.1,157.799922 410.2,161.399922 L410.2,161.399922 Z" id="Path" fill="#000000" fill-rule="nonzero"></path>
    </g>
</svg>

<svg xmlns="http://www.w3.org/2000/svg" width="512" height="512" viewBox="0 0 512 512">
    <path d="M110.4 152.9c8.5 4.5 126 68.5 130.4 70.8 4.4 2.3 8.8 3.4 15.8 3.4 7.1 0 11.4-1.1 15.8-3.4s121.9-66.4 130.4-70.8c3.2-1.6 8.5-4.5 9.6-7.8 2-5.8-.2-8.1-8.7-8.1H109.5c-8.5 0-10.7 2.3-8.7 8.1 1.2 3.5 6.5 6.2 9.6 7.8z"/>
    <path d="M410.2 161.4c-6.3 3.2-62.9 43.5-100.4 67.8l63.2 71.2c1.5 1.5 2.2 3.4 1.4 4.3-.9.8-2.9.4-4.5-1.1l-75.8-64c-11.5 7.4-19.5 12.5-20.9 13.2-5.9 3-10.1 3.4-15.8 3.4-5.7 0-9.8-.4-15.8-3.4-1.5-.8-9.5-5.8-20.9-13.2l-75.8 64c-1.5 1.5-3.6 2-4.5 1.1-.9-.8-.2-2.8 1.3-4.3l63.2-71.2c-37.5-24.2-94.7-64.5-101-67.8-6.9-3.5-7.3.6-7.3 3.8v157.7c0 7.2 10.5 16.1 18.1 16.1h285.4c7.5 0 16.5-9 16.5-16.1V165.2c0-3.3.5-7.4-6.4-3.8z"/>
</svg>
